www/assets/images/test_icons/flags/MK.svg

<svg fill="none" height="15" viewBox="0 0 21 15" width="21" xmlns="http://www.w3.org/2000/svg" xmlns:xlink="http://www.w3.org/1999/xlink"><mask id="a" height="15" maskUnits="userSpaceOnUse" width="21" x="0" y="0"><path d="m19 0h-17c-1.10457 0-2 .89543-2 2v11c0 1.1046.89543 2 2 2h17c1.1046 0 2-.8954 2-2v-11c0-1.10457-.8954-2-2-2z" fill="#fff"/></mask><g mask="url(#a)"><path d="m19 0h-17c-1.10457 0-2 .89543-2 2v11c0 1.1046.89543 2 2 2h17c1.1046 0 2-.8954 2-2v-11c0-1.10457-.8954-2-2-2z" fill="#d40000"/><path clip-rule="evenodd" d="m0 0 10 7h1l-7-7zm0 15 10-7h1l-7 7z" fill="#ffe800" fill-rule="evenodd"/><path clip-rule="evenodd" d="m11 7h-1l7-7h4zm0 1h-1l7 7h4zm-3-1-8-1v3l8-1zm5 0 8-1v3l-8-1zm-3-2-1-5h3l-1 5zm0 5-1 5h3l-1-5" fill="#ffe800" fill-rule="evenodd"/><path d="m10.5 10c1.3807 0 2.5-1.11929 2.5-2.5s-1.1193-2.5-2.5-2.5c-1.38071 0-2.5 1.11929-2.5 2.5s1.11929 2.5 2.5 2.5z" fill="#d40000"/><path d="m10.5 9c.8284 0 1.5-.67157 1.5-1.5s-.6716-1.5-1.5-1.5c-.82843 0-1.5.67157-1.5 1.5s.67157 1.5 1.5 1.5z" fill="#ffe800"/><path d="m19 .5h-17c-.82843 0-1.5.67157-1.5 1.5v11c0 .8284.67157 1.5 1.5 1.5h17c.8284 0 1.5-.6716 1.5-1.5v-11c0-.82843-.6716-1.5-1.5-1.5z" stroke="#000" stroke-opacity=".1"/></g></svg>

<svg width="21" height="15" viewBox="0 0 21 15" fill="none" xmlns="http://www.w3.org/2000/svg">
<mask id="mask0_3_96" style="mask-type:alpha" maskUnits="userSpaceOnUse" x="0" y="0" width="21" height="15">
<path d="M19 0H2C0.89543 0 0 0.89543 0 2V13C0 14.1046 0.89543 15 2 15H19C20.1046 15 21 14.1046 21 13V2C21 0.89543 20.1046 0 19 0Z" fill="white"/>
</mask>
<g mask="url(#mask0_3_96)">
<path d="M19 0H2C0.89543 0 0 0.89543 0 2V13C0 14.1046 0.89543 15 2 15H19C20.1046 15 21 14.1046 21 13V2C21 0.89543 20.1046 0 19 0Z" fill="#D40000"/>
<path fill-rule="evenodd" clip-rule="evenodd" d="M0 0L10 7H11L4 0H0ZM0 15L10 8H11L4 15H0Z" fill="#FFE800"/>
<path fill-rule="evenodd" clip-rule="evenodd" d="M11 7H10L17 0H21L11 7ZM11 8H10L17 15H21L11 8ZM8 7L0 6V9L8 8V7ZM13 7L21 6V9L13 8V7ZM10 5L9 0H12L11 5H10ZM10 10L9 15H12L11 10" fill="#FFE800"/>
<path d="M10.5 10C11.8807 10 13 8.88071 13 7.5C13 6.11929 11.8807 5 10.5 5C9.11929 5 8 6.11929 8 7.5C8 8.88071 9.11929 10 10.5 10Z" fill="#D40000"/>
<path d="M10.5 9C11.3284 9 12 8.32843 12 7.5C12 6.67157 11.3284 6 10.5 6C9.67157 6 9 6.67157 9 7.5C9 8.32843 9.67157 9 10.5 9Z" fill="#FFE800"/>
<path d="M19 0.5H2C1.17157 0.5 0.5 1.17157 0.5 2V13C0.5 13.8284 1.17157 14.5 2 14.5H19C19.8284 14.5 20.5 13.8284 20.5 13V2C20.5 1.17157 19.8284 0.5 19 0.5Z" stroke="black" stroke-opacity="0.1"/>
</g>
</svg>
